X:1
T:Title
%%score { ( 1 5 ) | ( 2 3 4 ) }
L:1/8
M:3/4
K:Ab
V:1 treble nm="Grand Piano"
V:5 treble 
V:2 bass 
V:3 bass 
V:4 bass 
V:1
 z2 z2[Q:1/4=100] [CE]>D | [A,C]3 D EF | [B,D]2 B,2 E2 | [CE]3 C [B,D]E |[M:2/4] [A,C]4 | %5
[M:1/4] [=A,F]>E |[M:3/4] [B,D]3 [G,B,] [G,E]>D | [B,D]2 C2 A>A | [B,G]3 F G>F |[M:2/4] [G,E]4 | %10
[M:1/4] [G,E]>[G,E] |[M:3/4] [Ec]3 [Ec] [EB][EA] | c2 B2 d>[GB] | [Ge]3 [Bd] [Bd][GB] |[M:2/4] c4 | %15
[M:1/4] c>c |[M:3/4] [Ec]3 [Ec] [EB][EA] | [EG]2 F2 BB | z2 z2 B2 |[M:2/4] [CA]4 |] %20
V:2
 z2 z2 z z/ B,/ | z2 z B, CD | z2 z2 z z/ E/ | z2 z A, z G, |[M:2/4] A,,4 |[M:1/4] z z/ C/ | %6
[M:3/4] B,,3 E,, z z/ B,/ | z2 A,2 C>C | z2 z A, B,>A, |[M:2/4] E,,4 |[M:1/4] E,>E, | %11
[M:3/4] [A,,A,]3 [A,,A,] [B,,G,][C,A,] | [E,A,E]2 [E,G,E]2 [E,B,E]>[E,E] | %13
 [E,B,]3 [E,E] [E,E][E,E] |[M:2/4][K:treble] [A,EA]4 |[M:1/4] [A,E]>[K:bass][A,E] | %16
[M:3/4] [A,,A,]3 [A,,A,] [B,,G,][C,A,] | [D,A,]2 [D,A,D]2 [D,F,D][D,F,D] | %18
 [E,C]>[E,A,E] [E,A,E]2 .[E,G,E]2 |[M:2/4] [A,,A,]4 |] %20
V:3
 z2 z2 A,,2 | A,,6 | z2 G,2 (3G,B,D | A,,4 E,,2 |[M:2/4] x4 |[M:1/4] F,,2 |[M:3/4] z2 z2 E,,2 | %7
 A,,6 | B,,6 |[M:2/4] x4 |[M:1/4] x2 |[M:3/4] x6 | x6 | x6 |[M:2/4][K:treble] x4 | %15
[M:1/4] x3/2[K:bass] x/ |[M:3/4] x6 | x6 | x6 |[M:2/4] x4 |] %20
V:4
 x6 | x6 | E,,6 | x6 |[M:2/4] x4 |[M:1/4] x2 |[M:3/4] x6 | x6 | x6 |[M:2/4] x4 |[M:1/4] x2 | %11
[M:3/4] x6 | x6 | x6 |[M:2/4][K:treble] x4 |[M:1/4] x3/2[K:bass] x/ |[M:3/4] x6 | x6 | x6 | %19
[M:2/4] x4 |] %20
V:5
 x6 | x6 | x6 | x6 |[M:2/4] x4 |[M:1/4] x2 |[M:3/4] x6 | x6 | x6 |[M:2/4] x4 |[M:1/4] x2 | %11
[M:3/4] x6 | x6 | x6 |[M:2/4] x4 |[M:1/4] x2 |[M:3/4] x6 | x6 | A>c c2 z D |[M:2/4] x4 |] %20

